X: 192114
T: Saint Mary's Well
C: Joe Liddy
Z: BB
S: "The Leitrim Fiddler" (Dublin 1981)
L: 1/8
M: 4/4
R: reel
Q: 1/4 = 180
K: Edor
GA |: BE E2 EDB,A, | B,EED E2 GA | B2 dB eBdB | GABd edBA |
GE (3FED EDB,A, | B,EED E2 GA | B2 dB GABd |1 edBA GE E2 :|
[2 edBA GEGA || BedB e2 ef | g2 fd edBA | G2 GA Bdeg |
edBA GEGA | Bdef g2 fg | edBA BEGA | B2 dB GABd |
[1 edBA GE E2 :|2 edBA GEGA || B2 BA BEGA | B2 AG FDFA |
B2 BA BAGA | BedB e2 ef |1 g2 fg egfg | edBA GEDB, |
E2 (3GED GABd | edBA GEGA :|2 g2 ba gedB | e2 BA BEGA |
B2 dB GABd | BAGF E4 ||
%%%%%%%%%%%%%%%%%%%%%%
